svgs/1F443-1F3FB.svg

<svg xmlns="http://www.w3.org/2000/svg" xmlns:xlink="http://www.w3.org/1999/xlink" preserveAspectRatio="none" viewBox="0 0 72 72"><defs><path id="a" fill="#FADCBC" d="M48.95 42.85q-3-20.45-3.35-39.2H26.45q-.35 18.75-3.35 39.2-3.95-2.65-8.55 1.2-4.45 3.85-5.4 13.3-.6 6.65 6.4 7.9 2.1.35 5.85.3 3.95-.1 4.85.05 3.05.4 5.1 1.75 1.55 1 4.7 1.05 3.1-.05 4.65-1.05 2.05-1.35 5.1-1.75.9-.15 4.85-.05 3.75.05 5.85-.3 7-1.25 6.4-7.9-.95-9.45-5.4-13.3-4.6-3.85-8.55-1.2z"/><path id="b" fill="#DBA689" d="M45.4 107.9q8 1.35 9.2 1.2 4.3-.5-.7-6.85-5.55-6.95-12.7-3.7-2.25 1-4.35 2.95-1.1.95-1.7 1.7-1.1 3.1-.95 4.1.1.9 1.5.8.85-.05 3.75-.45 3.1-.25 5.95.25z"/><path id="c" fill="#DBA689" d="M52.85 60.35q.1-.55-.55-2.3-1.35-1.7-3.4-2.6-4-1.85-7.15 2.05-2.8 3.6-.35 3.85.7.1 5.15-.65 1.6-.3 3.35-.15.9.1 2.1.25.8.05.85-.45z"/></defs><use xlink:href="#a"/><use transform="rotate(4.999 147.608 -77.052) scale(.67323)" xlink:href="#b"/><use transform="scale(1.1969) rotate(-5 -57.238 70.362)" xlink:href="#c"/></svg>

<svg xmlns="http://www.w3.org/2000/svg" version="1.1" xmlns:xlink="http://www.w3.org/1999/xlink" preserveAspectRatio="none" x="0px" y="0px" width="72px" height="72px" viewBox="0 0 72 72">
<defs>
<g id="Layer0_0_MEMBER_0_FILL">
<path fill="#FADCBC" stroke="none" d="
M 48.95 42.85
Q 45.95 22.4 45.6 3.65
L 26.45 3.65
Q 26.1 22.4 23.1 42.85 19.15 40.2 14.55 44.05 10.1 47.9 9.15 57.35 8.55 64 15.55 65.25 17.65 65.6 21.4 65.55 25.35 65.45 26.25 65.6 29.3 66 31.35 67.35 32.9 68.35 36.05 68.4 39.15 68.35 40.7 67.35 42.75 66 45.8 65.6 46.7 65.45 50.65 65.55 54.4 65.6 56.5 65.25 63.5 64 62.9 57.35 61.95 47.9 57.5 44.05 52.9 40.2 48.95 42.85 Z"/>
</g>

<g id="Layer0_0_MEMBER_1_MEMBER_0_FILL">
<path fill="#DBA689" stroke="none" d="
M 45.4 107.9
Q 53.4 109.25 54.6 109.1 58.9 108.6 53.9 102.25 48.35 95.3 41.2 98.55 38.95 99.55 36.85 101.5 35.75 102.45 35.15 103.2 34.05 106.3 34.2 107.3 34.3 108.2 35.7 108.1 36.55 108.05 39.45 107.65 42.55 107.4 45.4 107.9 Z"/>
</g>

<g id="Layer0_0_MEMBER_1_MEMBER_1_FILL">
<path fill="#DBA689" stroke="none" d="
M 52.85 60.35
Q 52.95 59.8 52.3 58.05 50.95 56.35 48.9 55.45 44.9 53.6 41.75 57.5 38.95 61.1 41.4 61.35 42.1 61.45 46.55 60.7 48.15 60.4 49.9 60.55 50.8 60.65 52 60.8 52.8 60.85 52.85 60.35 Z"/>
</g>
</defs>

<g id="Layer_1">
<g transform="matrix( 1, 0, 0, 1, 0,0) ">
<use xlink:href="#Layer0_0_MEMBER_0_FILL"/>
</g>

<g transform="matrix( 0.6706695556640625, 0.0586395263671875, -0.0586395263671875, 0.6706695556640625, -6.15,-13.15) ">
<use xlink:href="#Layer0_0_MEMBER_1_MEMBER_0_FILL"/>
</g>

<g transform="matrix( 1.192352294921875, -0.10430908203125, 0.10430908203125, 1.192352294921875, -7.6,-5.65) ">
<use xlink:href="#Layer0_0_MEMBER_1_MEMBER_1_FILL"/>
</g>
</g>
</svg>
